public/images/404.svg

<svg width="650" height="241" viewBox="0 0 650 241" fill="none" xmlns="http://www.w3.org/2000/svg">
<path d="M182.496 236.79H112.115V199.508H0.271579V145.503L84.9379 4.39269H182.496V138.186H209.324V199.508H182.496V236.79ZM112.115 138.186V65.018L68.2137 138.186H112.115ZM382.051 223.898C366.256 235.28 347.209 240.971 324.91 240.971C302.611 240.971 283.448 235.28 267.421 223.898C251.626 212.284 240.012 197.65 232.579 179.997C225.378 162.111 221.778 142.367 221.778 120.765C221.778 87.0846 230.72 58.7464 248.606 35.7506C266.492 12.5225 291.926 0.908483 324.91 0.908483C357.894 0.908483 383.329 12.5225 401.214 35.7506C419.1 58.7464 428.043 87.0846 428.043 120.765C428.043 142.367 424.326 162.111 416.893 179.997C409.693 197.65 398.079 212.284 382.051 223.898ZM292.507 120.765C292.507 159.556 303.308 178.952 324.91 178.952C346.512 178.952 357.313 159.556 357.313 120.765C357.313 82.2067 346.512 62.9274 324.91 62.9274C303.308 62.9274 292.507 82.2067 292.507 120.765ZM622.786 236.79H552.405V199.508H440.561V145.503L525.228 4.39269H622.786V138.186H649.614V199.508H622.786V236.79ZM552.405 138.186V65.018L508.504 138.186H552.405Z" fill="white"/>
</svg>

<svg width="650" height="241" fill="none" xmlns="http://www.w3.org/2000/svg"><path d="M182.496 236.79h-70.381v-37.282H.272v-54.005L84.938 4.393h97.558v133.793h26.828v61.322h-26.828v37.282zm-70.381-98.604V65.018l-43.901 73.168h43.901zm269.936 85.712c-15.795 11.382-34.842 17.073-57.141 17.073s-41.462-5.691-57.489-17.073c-15.795-11.614-27.409-26.248-34.842-43.901-7.201-17.886-10.801-37.63-10.801-59.232 0-33.68 8.942-62.019 26.828-85.014C266.492 12.523 291.926.908 324.91.908s58.419 11.615 76.304 34.843c17.886 22.995 26.829 51.334 26.829 85.014 0 21.602-3.717 41.346-11.15 59.232-7.2 17.653-18.814 32.287-34.842 43.901zm-89.544-103.133c0 38.791 10.801 58.187 32.403 58.187 21.602 0 32.403-19.396 32.403-58.187 0-38.558-10.801-57.838-32.403-57.838-21.602 0-32.403 19.28-32.403 57.838zM622.786 236.79h-70.381v-37.282H440.561v-54.005l84.667-141.11h97.558v133.793h26.828v61.322h-26.828v37.282zm-70.381-98.604V65.018l-43.901 73.168h43.901z" fill="#fff"/></svg>
